X:96
T: Kiszárad a tóból...
L: 1/8
K: F
ggga gf | fe d2 dg d2 | 
defg fe | gg c2 cd c2 | 
fedg cB | BA G2 cc d2 | 
cccd cB | dc G2 GA G2 | 

